Simply-Purple-Circles/scalable/apps/distributor-logo-lubuntu.svg

<svg xmlns="http://www.w3.org/2000/svg" width="48" height="48" viewBox="0 0 12.7 12.7"><path d="M6.34.07a6.29 6.29 0 0 0-6.29 6.3 6.29 6.29 0 0 0 6.3 6.28 6.29 6.29 0 0 0 6.28-6.29A6.29 6.29 0 0 0 6.34.07zM6.32 1l.01.01a5.4 5.4 0 0 1 5.4 5.4 5.4 5.4 0 0 1-2.03 4.23C9.27 8.2 8.46 5.13 7 4.16c.19-.12.2-.75.2-.75l.5-.62c-.18 0-1.12.27-1.4.62-.74.05-3.4 1.83-5.38 3.2a5.4 5.4 0 0 1-.01-.19A5.4 5.4 0 0 1 6.32 1zm-.31 5.33h.04c1.2 0 2.37 2.53 3.14 4.66a5.4 5.4 0 0 1-2.86.83 5.4 5.4 0 0 1-3.66-1.43l.85-1.19C4.6 7.72 5.54 6.34 6.01 6.33zm-3.47.56c.09 0 .15.02.18.05.15.18-.48 1.04-1.16 2.03A5.4 5.4 0 0 1 1 7.3a6.24 6.24 0 0 1 1.55-.4zm1.12.53h.05c.04.06-.68 1.25-1.47 2.53a5.4 5.4 0 0 1-.44-.58c.8-.98 1.6-1.91 1.86-1.95z" fill="#963996"/></svg>

<?xml version="1.0" encoding="UTF-8" standalone="no"?>
<svg
   xmlns:dc="http://purl.org/dc/elements/1.1/"
   xmlns:cc="http://creativecommons.org/ns#"
   xmlns:rdf="http://www.w3.org/1999/02/22-rdf-syntax-ns#"
   xmlns:svg="http://www.w3.org/2000/svg"
   xmlns="http://www.w3.org/2000/svg"
   xmlns:sodipodi="http://sodipodi.sourceforge.net/DTD/sodipodi-0.dtd"
   xmlns:inkscape="http://www.inkscape.org/namespaces/inkscape"
   width="48"
   height="48"
   viewBox="0 0 12.7 12.7"
   version="1.1"
   id="svg4"
   sodipodi:docname="distributor-logo-lubuntu.svg"
   inkscape:version="0.92.4 (5da689c313, 2019-01-14)">
  <metadata
     id="metadata10">
    <rdf:RDF>
      <cc:Work
         rdf:about="">
        <dc:format>image/svg+xml</dc:format>
        <dc:type
           rdf:resource="http://purl.org/dc/dcmitype/StillImage" />
        <dc:title></dc:title>
      </cc:Work>
    </rdf:RDF>
  </metadata>
  <defs
     id="defs8" />
  <sodipodi:namedview
     pagecolor="#ffffff"
     bordercolor="#666666"
     borderopacity="1"
     objecttolerance="10"
     gridtolerance="10"
     guidetolerance="10"
     inkscape:pageopacity="0"
     inkscape:pageshadow="2"
     inkscape:window-width="1087"
     inkscape:window-height="480"
     id="namedview6"
     showgrid="false"
     inkscape:zoom="4.9166667"
     inkscape:cx="2.1355932"
     inkscape:cy="24"
     inkscape:window-x="0"
     inkscape:window-y="25"
     inkscape:window-maximized="0"
     inkscape:current-layer="svg4" />
  <path
     d="M 6.34,0.07 A 6.29,6.29 0 0 0 0.05,6.37 6.29,6.29 0 0 0 6.35,12.65 6.29,6.29 0 0 0 12.63,6.36 6.29,6.29 0 0 0 6.34,0.07 Z M 6.32,1 6.33,1.01 a 5.4,5.4 0 0 1 5.4,5.4 5.4,5.4 0 0 1 -2.03,4.23 C 9.27,8.2 8.46,5.13 7,4.16 7.19,4.04 7.2,3.41 7.2,3.41 L 7.7,2.79 C 7.52,2.79 6.58,3.06 6.3,3.41 5.56,3.46 2.9,5.24 0.92,6.61 A 5.4,5.4 0 0 1 0.91,6.42 5.4,5.4 0 0 1 6.32,1 Z M 6.01,6.33 h 0.04 c 1.2,0 2.37,2.53 3.14,4.66 A 5.4,5.4 0 0 1 6.33,11.82 5.4,5.4 0 0 1 2.67,10.39 L 3.52,9.2 C 4.6,7.72 5.54,6.34 6.01,6.33 Z M 2.54,6.89 c 0.09,0 0.15,0.02 0.18,0.05 C 2.87,7.12 2.24,7.98 1.56,8.97 A 5.4,5.4 0 0 1 1,7.3 6.24,6.24 0 0 1 2.55,6.9 Z M 3.66,7.42 H 3.71 C 3.75,7.48 3.03,8.67 2.24,9.95 A 5.4,5.4 0 0 1 1.8,9.37 C 2.6,8.39 3.4,7.46 3.66,7.42 Z"
     id="path2"
     inkscape:connector-curvature="0"
     style="fill:#963996" />
</svg>
